X: 1829
T: Ride A Cock Horse to Banbury Cross (Dad's version)
B: australian traditional tunes wiki
M:6/8
L:1/8
R: Jig
Q: 3/8=100
K:D
V:1 
ABc||"D"dcd dcB|"A7"ABA "D"F2A|dcd ABA|"A7"G2EE2A|
"D"dcd dcB|ABA F2A|dcd "A7"e2c|"D"d3d2F|
"D"F3-FEF|"G"G3B3|"D"A3-AGF|"A7"E3-E2E|
"D"F3FEF|"G"G3B3|"A7"ABA GFE|"D"D3D2z||
% abcbook-tune_id 6342d53ac5da765fb10168bf


% abcbook-boost 0
% abcbook-tablature 
% abcbook-transpose 
% abcbook-lastupdated 1665324386512
% abcbook-soundfonts 
% abcbook-repeats 1
% NFF Book 2014

